X: 43
T:Les Filles de mon Pays
M:4/4
L:1/4
R:Air
Z:Steve Mansfield
K:G
B/A/ | G>ABA | G>ABA | GABc | d4 | B3d | dBGA |
|1 B2AG | A3:|2 B2A2 | GABc |: d2 g>f | e3d | c>dec |
d4 | B3d | dBGA |1 B2AG | A3B/c/ :|2 B2A2 | G3 ||

